X:1
T:Hark, hark what news the angels bring
T:Joseph Stephenson
T:p28, Church Harmony Sacred to Devotion, 4th ed. London: [c1763-1771]
T:This edition by Edmund Gooch released into the public domain, May 2016.
T:Hark, hark what news the angels bring
T:A Christmas Hymn. A 3 Voci.
C:Joseph Stephenson
Z:p28, Church Harmony
Z:Sacred to Devotion, 4th ed.
Z:London: [c1763-1771]
%%score [ 1 2 3 ]
L:1/8
M:2/2
K:C
V:1 treble nm="ALTO" snm="A."
V:2 treble-8 transpose=-12 nm="TENOR" snm="T."
V:3 bass nm="BASS" snm="B."
V:1
 z8 | C4 G4 | z4 ||"^Cho:" G4 | G2 G2 G2 G2 | A4 G4 | G6 z2 | z8 | z4 z2 G2 | A2 (GF) E2 (EF) | %10
w: |Hark, hark,||Hark,|hark what news the|an- gels|bring,||Glad|ti- dings _ of a _|
w: |||Hail,|migh- ty prince, e-|ter- nal|King,||Let|heav’n and _ earth re- *|
 G2 G2 E4- | E4 |:"^Cho:" G4 | G2 G2 G4 | A4 A2 A2 | [^FA]6 z2 | z8 | z4 z2 G2 | A2 G2 A2 A2 | %19
w: new- born King:|_|Born|of a maid,|a vir- gin|pure,||Born|with- out sin, from|
w: joice and sing:|_|An-|gels and men|with one ac-|cord||Break|forth in songs, O|
 TG6 F2 | E8- | E4 :| %22
w: guilt se-|cure.|_|
w: praise the|Lord.|_|
V:2
 z4 G4 | c4 z4 | z4 || c4 | e2 d2 c2 g2 | f4 e4 | d6 d2 | g2 f2 e2 d2 | e2 d2 c2 G2 | %9
w: Hark,|hark,||Hark,|hark what news the|an- gels|bring, Glad|ti- dings of, glad|ti- dings of a|
w: |||Hail,|migh- ty prince, e-|ter- nal|King, Let|heav’n and earth, let|heav’n and earth re-|
 (c>dcd e2) d2 | c8- | c4 |: d4 | d2 d2 e4 | c4 f2 e2 | d6 z2 | z4 z2 c2 | f2 e2 f2 d2 | e6 f2 | %19
w: new- * * * * born|King:|_|Born|of a maid,|a vir- gin|pure,|Born|with- out sin, from|guilt, from|
w: joice _ _ _ _ and|sing:|_|An-|gels and men|with one ac-|cord|Break|forth in songs, O|praise, O|
 Td6 B2 | c8- | c4 :| %22
w: guilt se-|cure.|_|
w: praise the|Lord.|_|
V:3
 C,4 G,4 | z8 | z4 || C,4 | C2 B,2 C2 E,2 | F,4 C,4 | G,6 z2 | z4 z2 G,2 | C2 B,2 A,2 E,2 | %9
w: Hark, hark,|||Hark,|hark what news the|an- gels|bring,|Glad|ti- dings of a|
w: |||Hail,|migh- ty prince, e-|ter- nal|King,|Let|heav’n and earth re-|
 F,4 G,4 | C,8- | C,4 |: G,4 | G,2 G,2 C4 | A,4 (F,G,) A,2 | %15
w: new- born|King:|_|Born|of a maid,|a vir- * gin|
w: joice and|sing:|_|An-|gels and men|with one _ ac-|
"^Notes:The order of parts in this edition is as in the source, Joseph Stephenson’s Church Harmony. The topmost part is printedin the alto clef in Church Harmony, identifying it as an alto part. The middle part is printed in the treble clef withoutindication of octave, and has here been treated as a tenor part. The time signature in the source is retorted time.Only the first verse of the text is underlaid in the source: the second verse is printed between the two systems of music,and has been added editorially. The ‘Hark, hark’ passage in bars 1-2 should be sung in verse 1 only (i.e. verse 2 shouldbegin from the double bar line which has been editorially added midway through bar 3). This is indicated in the sourceby the words ‘NB. begin the last Verse with the 1st Chorus’. Given that the first note sung by the tenor and alto voices inbars 1-2 is the same as the second note of the previous voice to enter, and that the passage outlines the first notes to besung by each of the three voices in the main part of the tune (the second beat of bar 3), the first two bars appear torepresent a pitching process, to establish the starting note for each of the parts." D,6 G,2 | %16
w: pure, Born|
w: cord Break|
 C2 B,2 C2 A,2 | F,6 G,2 | C6 F,2 | G,4 G,,4 | C,8- | C,4 :| %22
w: with- out sin, from|guilt se-|cure, from|guilt se-|cure.|_|
w: forth in songs, O|praise the|Lord, O|praise the|Lord.|_|

